X:2
B:Svenska låtar, Dalarna
O:Ore, Dalarna
T:Polska
T:efter Dalfors
R:Polska
M:3/4
L:1/16
K:C
D2|(C4E2)CE G2EG|c2Gc e2ce g4|a4ageg fefd|cBce dcBA GFED|
C2C2 E2CE G2EG|c2Gc e2ce g4|a4 (5gageg fefd|cBce d4c4 :: G2z2g4c'4|
a4a2zga4|{e}f4{g}f2ef d3B|(3G2B2d2 g4(G4|G2)z2g4c'4|a4a2zg a4|{e}f4{g}f2ef d3B|(3G2B2d2 g8|
f3{gf}e d2c2 B2A2|G^FGB d4+fermata+g4({e}|f3)e d2c2 B2A2|1G^FGB d4 c4:|2 G^FGB d4c2:|

